public/headerImg/logoBlack.svg

<svg width="101" height="67" viewBox="0 0 101 67" fill="none" xmlns="http://www.w3.org/2000/svg">
<mask id="mask0_70_15" style="mask-type:luminance" maskUnits="userSpaceOnUse" x="0" y="0" width="101" height="67">
<path d="M0 0H100.5V67H0V0Z" fill="white"/>
</mask>
<g mask="url(#mask0_70_15)">
<path d="M0.00108057 39.915H98.2393L86.9574 21.4468L65.781 24.4197L30.2797 0.797852L0 39.9161L0.00108057 39.915Z" stroke="#4F4F4F" stroke-width="1.44" stroke-miterlimit="10"/>
<path d="M2.96094 39.5185L29.9263 5.61328L64.736 39.5185H2.96094Z" stroke="#4F4F4F" stroke-width="1.44" stroke-miterlimit="10"/>
<path d="M74.6211 39.5187L86.5622 22.1484L97.6226 39.5187H74.6211Z" stroke="#4F4F4F" stroke-width="1.42" stroke-miterlimit="10"/>
<path d="M62.2531 21.7529V14.5342H67.7385V23.7683M30.9306 21.0591V34.3565M80.4188 39.1221L86.9081 30.3754L92.7046 39.1221H80.4188ZM37.5982 20.8776H24.2695V34.7444H37.6004V20.8765L37.5982 20.8776Z" stroke="#4F4F4F" stroke-width="1.44" stroke-miterlimit="10"/>
<path d="M7.47704 49.1236H2.92969V47.4724H14.0063V49.1247H9.43517V62.5041H7.47596V49.1247L7.47704 49.1236ZM14.6071 55.079C14.6071 53.8071 14.5823 52.7167 14.5164 51.7096H16.227L16.2919 53.8233H16.3826C16.8689 52.3785 18.0447 51.4621 19.3598 51.4621C19.5824 51.4621 19.738 51.487 19.9109 51.527V53.3781C19.692 53.3324 19.4689 53.3103 19.2453 53.3122C17.8718 53.3122 16.8927 54.3604 16.6215 55.8301C16.5804 56.0948 16.5307 56.4093 16.5307 56.7486V62.4966H14.5985V55.0715L14.6071 55.079ZM24.1298 48.6784C24.1546 49.3473 23.6608 49.8844 22.887 49.8844C22.1976 49.8844 21.7124 49.3473 21.7124 48.6784C21.7124 48.0084 22.2214 47.4562 22.9292 47.4562C23.6359 47.4562 24.1298 47.9932 24.1298 48.6784ZM21.9501 62.5041V51.7182H23.9082V62.5041H21.9501ZM36.876 57.0199C36.876 61.0096 34.1203 62.7516 31.5311 62.7516C28.6199 62.7516 26.3829 60.613 26.3829 57.2014C26.3829 53.5921 28.7355 51.4697 31.7116 51.4697C34.6888 51.4697 36.8846 53.725 36.8846 57.0199H36.876ZM28.3486 57.1279C28.3486 59.4902 29.7048 61.2733 31.6122 61.2733C33.5206 61.2733 34.8779 59.514 34.8779 57.0858C34.8779 55.2606 33.9647 52.9404 31.663 52.9404C29.3601 52.9404 28.3562 55.0801 28.3562 57.1279H28.3486ZM50.7904 61.8352C49.9269 62.1486 48.2163 62.6608 46.1933 62.6608C43.9315 62.6608 42.0652 62.0827 40.601 60.6789C39.3107 59.4319 38.5132 57.4251 38.5132 55.079C38.5369 50.5944 41.5962 47.3232 46.6126 47.3232C48.3481 47.3232 49.6968 47.7036 50.3462 48.017L49.8772 49.6034C49.0797 49.2479 48.0769 48.9593 46.5715 48.9593C42.9298 48.9593 40.5523 51.2309 40.5523 54.9969C40.5523 58.763 42.8379 61.0593 46.3252 61.0593C47.5917 61.0593 48.454 60.8767 48.8993 60.6541V56.1694H45.8551V54.609H50.7807V61.8352H50.7904ZM53.6854 55.079C53.6854 53.8071 53.6606 52.7167 53.5947 51.7096H55.3053L55.3702 53.8233H55.462C55.9472 52.3785 57.123 51.4621 58.4381 51.4621C58.6607 51.4621 58.8163 51.487 58.9892 51.527V53.3781C58.7703 53.3324 58.5472 53.3103 58.3236 53.3122C56.9501 53.3122 55.971 54.3604 55.6997 55.8301C55.6587 56.0948 55.609 56.4093 55.609 56.7486V62.4966H53.6768V55.0715L53.6854 55.079ZM70.4452 57.0199C70.4452 61.0096 67.6895 62.7516 65.0992 62.7516C62.1879 62.7516 59.951 60.613 59.951 57.2014C59.951 53.5921 62.3036 51.4697 65.2807 51.4697C68.2568 51.4697 70.4527 53.725 70.4527 57.0199H70.4452ZM61.9167 57.1279C61.9167 59.4902 63.274 61.2733 65.1813 61.2733C67.0897 61.2733 68.447 59.514 68.447 57.0858C68.447 55.2606 67.5339 52.9404 65.231 52.9404C62.9293 52.9404 61.9243 55.0801 61.9243 57.1279H61.9167ZM81.9 59.5561C81.9 60.6703 81.9248 61.6537 81.9908 62.4955H80.2552L80.1483 60.7373H80.1072C79.5971 61.604 78.4625 62.744 76.5551 62.744C74.8693 62.744 72.8463 61.8104 72.8463 58.0195V51.7085H74.8023V57.6812C74.8023 59.7291 75.4291 61.1177 77.2046 61.1177C78.5122 61.1177 79.4253 60.1991 79.7787 59.3325C79.8857 59.0439 79.9591 58.6884 79.9591 58.3339V51.7096H81.9162V59.5551L81.9 59.5561ZM85.1484 55.2357C85.1475 54.0627 85.1173 52.8898 85.0576 51.7182H86.8094L86.9001 53.5683H86.9412C87.7387 52.2542 89.0052 51.4697 90.757 51.4697C93.3559 51.4697 95.3043 53.6742 95.3043 56.954C95.3043 60.8356 92.9528 62.7516 90.4198 62.7516C88.9966 62.7516 87.7549 62.1248 87.113 61.0593H87.073V66.9229H85.1398V55.2444L85.1484 55.2357ZM87.0806 58.1102C87.0806 58.3999 87.1217 58.6635 87.1714 58.911C87.5247 60.2748 88.7005 61.2074 90.0999 61.2074C92.1639 61.2074 93.3635 59.514 93.3635 57.0361C93.3635 54.8726 92.2288 53.0226 90.1648 53.0226C88.8323 53.0226 87.5907 53.9811 87.2124 55.4508C87.1476 55.6993 87.0806 55.9879 87.0806 56.2526V58.1102Z" fill="#4F4F4F" stroke="#4F4F4F" stroke-width="0.21" stroke-miterlimit="10"/>
</g>
</svg>

<svg width="101" height="67" fill="none" xmlns="http://www.w3.org/2000/svg"><mask id="a" style="mask-type:luminance" maskUnits="userSpaceOnUse" x="0" y="0" width="101" height="67"><path d="M0 0h100.5v67H0V0Z" fill="#fff"/></mask><g mask="url(#a)" stroke="#4F4F4F" stroke-miterlimit="10"><path d="M.001 39.915H98.24L86.957 21.447 65.781 24.42 30.28.798 0 39.916l.001-.001Z" stroke-width="1.44"/><path d="M2.96 39.519 29.927 5.613l34.81 33.906H2.961Z" stroke-width="1.44"/><path d="m74.621 39.519 11.941-17.37 11.06 17.37h-23Z" stroke-width="1.42"/><path d="M62.253 21.753v-7.219h5.486v9.234M30.93 21.06v13.297m49.488 4.766 6.49-8.747 5.796 8.747H80.419Zm-42.82-18.244h-13.33v13.866H37.6V20.877h-.002Z" stroke-width="1.44"/><path d="M7.477 49.124H2.93v-1.652h11.076v1.653h-4.57v13.38h-1.96v-13.38l.001-.001Zm7.13 5.955c0-1.272-.025-2.362-.09-3.37h1.71l.065 2.114h.09c.487-1.444 1.663-2.36 2.978-2.36.222 0 .378.024.55.064v1.851a3.127 3.127 0 0 0-.665-.066c-1.373 0-2.352 1.048-2.623 2.518-.042.265-.091.58-.091.919v5.748h-1.932v-7.425l.008.007Zm9.523-6.4c.025.668-.47 1.205-1.243 1.205-.69 0-1.175-.537-1.175-1.206a1.2 1.2 0 0 1 1.217-1.222c.707 0 1.2.537 1.2 1.222Zm-2.18 13.825V51.718h1.958v10.786H21.95Zm14.926-5.484c0 3.99-2.756 5.732-5.345 5.732-2.911 0-5.148-2.139-5.148-5.55 0-3.61 2.352-5.732 5.329-5.732s5.173 2.255 5.173 5.55h-.009Zm-8.527.108c0 2.362 1.356 4.145 3.263 4.145 1.909 0 3.266-1.759 3.266-4.187 0-1.825-.913-4.146-3.215-4.146-2.303 0-3.307 2.14-3.307 4.188h-.007Zm22.441 4.707c-.863.314-2.574.826-4.597.826-2.261 0-4.128-.578-5.592-1.982-1.29-1.247-2.088-3.254-2.088-5.6.024-4.485 3.083-7.756 8.1-7.756 1.735 0 3.084.38 3.733.694l-.469 1.586c-.797-.355-1.8-.644-3.306-.644-3.641 0-6.019 2.272-6.019 6.038 0 3.766 2.286 6.062 5.773 6.062 1.267 0 2.129-.182 2.574-.405V56.17h-3.044v-1.56h4.926v7.226h.01Zm2.895-6.756c0-1.272-.024-2.362-.09-3.37h1.71l.065 2.114h.092c.485-1.444 1.661-2.36 2.976-2.36.223 0 .378.024.551.064v1.851a3.127 3.127 0 0 0-.665-.066c-1.374 0-2.353 1.048-2.624 2.518-.041.265-.091.58-.091.919v5.748h-1.932v-7.425l.008.007Zm16.76 1.94c0 3.99-2.755 5.733-5.346 5.733-2.911 0-5.148-2.139-5.148-5.55 0-3.61 2.353-5.732 5.33-5.732 2.976 0 5.172 2.255 5.172 5.55h-.008Zm-8.528.109c0 2.362 1.357 4.145 3.264 4.145 1.909 0 3.266-1.759 3.266-4.187 0-1.825-.913-4.146-3.216-4.146-2.302 0-3.307 2.14-3.307 4.188h-.007ZM81.9 59.556c0 1.114.025 2.098.09 2.94h-1.735l-.107-1.759h-.04c-.51.867-1.645 2.007-3.553 2.007-1.686 0-3.709-.934-3.709-4.724v-6.312h1.956v5.973c0 2.048.627 3.437 2.403 3.437 1.307 0 2.22-.919 2.574-1.785.107-.29.18-.645.18-1V51.71h1.957v7.845l-.016.001Zm3.248-4.32c0-1.173-.03-2.346-.09-3.518h1.751l.091 1.85h.041c.798-1.314 2.064-2.098 3.816-2.098 2.599 0 4.547 2.204 4.547 5.484 0 3.882-2.351 5.798-4.884 5.798-1.423 0-2.665-.627-3.307-1.693h-.04v5.864H85.14V55.244l.008-.008Zm1.933 2.874c0 .29.04.553.09.801.354 1.364 1.53 2.296 2.929 2.296 2.064 0 3.264-1.693 3.264-4.17 0-2.164-1.135-4.014-3.2-4.014-1.332 0-2.573.958-2.952 2.428-.064.248-.131.537-.131.802v1.857Z" fill="#4F4F4F" stroke-width=".21"/></g></svg>
